_src/static/img/icon/inst.svg

<svg width="18" height="18" viewBox="0 0 18 18" fill="none" xmlns="http://www.w3.org/2000/svg">
<circle cx="9.27872" cy="10.0614" r="2.65641" fill="white"/>
<rect x="2.19495" y="2.09277" width="14.1675" height="14.1675" fill="#1B3ACD"/>
<path d="M9.2122 4.68076C6.83278 4.68076 4.90125 6.61229 4.90125 8.99171C4.90125 11.3711 6.83278 13.3027 9.2122 13.3027C11.5916 13.3027 13.5232 11.3711 13.5232 8.99171C13.5232 6.61229 11.5916 4.68076 9.2122 4.68076ZM9.2122 11.791C7.66697 11.791 6.41288 10.5369 6.41288 8.99171C6.41288 7.44649 7.66697 6.19239 9.2122 6.19239C10.7574 6.19239 12.0115 7.44649 12.0115 8.99171C12.0115 10.5369 10.7574 11.791 9.2122 11.791ZM14.7045 4.5072C14.7045 5.06146 14.251 5.51495 13.6967 5.51495C13.1424 5.51495 12.689 5.06146 12.689 4.5072C12.689 3.95293 13.1424 3.49944 13.6967 3.49944C14.251 3.49944 14.7045 3.95293 14.7045 4.5072ZM17.5598 5.53175C17.5206 4.63597 17.375 4.02572 17.1679 3.49385C16.9551 2.93958 16.664 2.47489 16.1993 2.00461C15.7346 1.53992 15.2643 1.24879 14.7101 1.03604C14.1782 0.828893 13.5679 0.688927 12.6722 0.644137C11.7764 0.604947 11.4908 0.59375 9.2122 0.59375C6.93355 0.59375 6.64802 0.604947 5.75224 0.644137C4.85645 0.683328 4.24621 0.828893 3.71434 1.03604C3.16007 1.24879 2.69538 1.53992 2.22509 2.00461C1.76041 2.46929 1.46928 2.93958 1.25653 3.49385C1.04938 4.02572 0.909418 4.63597 0.864629 5.53175C0.825438 6.42753 0.81424 6.71306 0.81424 8.99171C0.81424 11.2704 0.825438 11.5559 0.864629 12.4517C0.903819 13.3475 1.04938 13.9577 1.25653 14.4896C1.46928 15.0438 1.76041 15.5085 2.22509 15.9788C2.68978 16.4435 3.16007 16.7346 3.71434 16.9474C4.24621 17.1545 4.85645 17.2945 5.75224 17.3393C6.64802 17.3785 6.93355 17.3897 9.2122 17.3897C11.4908 17.3897 11.7764 17.3785 12.6722 17.3393C13.5679 17.3001 14.1782 17.1545 14.7101 16.9474C15.2643 16.7346 15.729 16.4435 16.1993 15.9788C16.664 15.5141 16.9551 15.0438 17.1679 14.4896C17.375 13.9577 17.515 13.3475 17.5598 12.4517C17.599 11.5559 17.6102 11.2704 17.6102 8.99171C17.6102 6.71306 17.599 6.42753 17.5598 5.53175ZM16.0481 12.3845C16.0089 13.2019 15.8746 13.6498 15.757 13.9465C15.6058 14.3384 15.4211 14.6183 15.13 14.9095C14.8388 15.2062 14.5589 15.3854 14.167 15.5365C13.8703 15.6541 13.428 15.7885 12.605 15.8276C11.7204 15.8668 11.4517 15.878 9.2122 15.878C6.97274 15.878 6.70401 15.8668 5.81942 15.8276C5.00202 15.7885 4.55413 15.6541 4.2574 15.5365C3.8655 15.3854 3.58557 15.2006 3.29444 14.9095C3.00331 14.6183 2.81855 14.3384 2.66739 13.9465C2.54982 13.6498 2.41545 13.2075 2.37626 12.3845C2.33707 11.4999 2.32587 11.2312 2.32587 8.99171C2.32587 6.74665 2.33707 6.48352 2.37626 5.59893C2.41545 4.78153 2.54982 4.33364 2.66739 4.03691C2.81855 3.64501 3.00331 3.36508 3.29444 3.07395C3.59117 2.78282 3.8655 2.59806 4.2574 2.4469C4.55413 2.32933 4.99642 2.19496 5.81942 2.15577C6.70401 2.11658 6.97274 2.10538 9.2122 2.10538C11.4573 2.10538 11.7204 2.11658 12.605 2.15577C13.4224 2.19496 13.8703 2.32933 14.167 2.4469C14.5589 2.59806 14.8388 2.78282 15.13 3.07395C15.4267 3.36508 15.6058 3.64501 15.757 4.03691C15.8746 4.33364 16.0089 4.77593 16.0481 5.59893C16.0873 6.48352 16.0985 6.75225 16.0985 8.99171C16.0985 11.2312 16.0873 11.4999 16.0481 12.3845Z" fill="white"/>
</svg>

<svg width="18" height="18" fill="none" xmlns="http://www.w3.org/2000/svg"><circle cx="9.279" cy="10.061" r="2.656" fill="#fff"/><path fill="#1B3ACD" d="M2.195 2.093h14.168v14.168H2.195z"/><path d="M9.212 4.68a4.313 4.313 0 00-4.31 4.312 4.313 4.313 0 004.31 4.31 4.313 4.313 0 004.311-4.31 4.312 4.312 0 00-4.31-4.311zm0 7.111a2.8 2.8 0 010-5.599 2.8 2.8 0 010 5.599zm5.492-7.284a1.01 1.01 0 01-1.007 1.008 1.01 1.01 0 01-1.008-1.008A1.01 1.01 0 0113.697 3.5a1.01 1.01 0 011.008 1.008zm2.856 1.025c-.04-.896-.185-1.506-.392-2.038a4.14 4.14 0 00-.969-1.49 4.092 4.092 0 00-1.489-.968c-.532-.207-1.142-.347-2.038-.392-.896-.04-1.181-.05-3.46-.05-2.278 0-2.564.01-3.46.05-.896.04-1.506.185-2.038.392a4.139 4.139 0 00-1.489.969 4.092 4.092 0 00-.968 1.489c-.208.532-.348 1.142-.392 2.038-.04.896-.05 1.181-.05 3.46 0 2.278.01 2.564.05 3.46.039.896.184 1.506.392 2.038a4.14 4.14 0 00.968 1.489c.465.465.935.756 1.49.968.531.207 1.141.348 2.037.392.896.04 1.182.05 3.46.05 2.279 0 2.564-.01 3.46-.05.896-.039 1.506-.184 2.038-.392a4.14 4.14 0 001.49-.968c.464-.465.755-.935.968-1.49.207-.531.347-1.142.392-2.037.039-.896.05-1.182.05-3.46 0-2.279-.011-2.564-.05-3.46zm-1.512 6.852c-.04.818-.173 1.266-.291 1.563a2.589 2.589 0 01-.627.963 2.52 2.52 0 01-.963.627c-.297.117-.739.252-1.562.29-.885.04-1.153.051-3.393.051-2.24 0-2.508-.011-3.393-.05-.817-.04-1.265-.174-1.562-.291a2.587 2.587 0 01-.963-.628 2.588 2.588 0 01-.627-.963c-.117-.296-.252-.739-.29-1.562-.04-.884-.051-1.153-.051-3.392 0-2.245.011-2.508.05-3.393.04-.817.174-1.265.291-1.562.152-.392.336-.672.627-.963.297-.291.571-.476.963-.627.297-.118.74-.252 1.562-.291.885-.04 1.154-.05 3.393-.05 2.245 0 2.508.01 3.393.05.817.039 1.265.173 1.562.29a2.6 2.6 0 01.963.628c.297.291.476.571.627.963.118.297.252.739.291 1.562.04.885.05 1.153.05 3.393 0 2.24-.01 2.508-.05 3.392z" fill="#fff"/></svg>
